dist/img/statistics/icon-6.svg

<svg width="18" height="19" viewBox="0 0 18 19" fill="none" xmlns="http://www.w3.org/2000/svg">
<g clip-path="url(#clip0_168_5659)">
<path d="M9 1.91797C4.30576 1.91797 0.5 5.72373 0.5 10.418C0.5 15.1122 4.30576 18.918 9 18.918C13.6942 18.918 17.5 15.1122 17.5 10.418C17.5 5.72373 13.6942 1.91797 9 1.91797ZM11.4416 13.769C11.0708 14.2202 10.5881 14.5246 10.0249 14.6785C9.78004 14.7449 9.66811 14.8743 9.6821 15.1297C9.69259 15.3815 9.6821 15.6299 9.6786 15.8818C9.6786 16.1056 9.56317 16.2246 9.3428 16.2316C9.19938 16.235 9.05597 16.2385 8.91255 16.2385C8.78663 16.2385 8.6607 16.2385 8.53477 16.235C8.29691 16.2315 8.18498 16.0951 8.18498 15.8643C8.18148 15.6824 8.18148 15.497 8.18148 15.3151C8.17798 14.9093 8.16399 14.8953 7.77572 14.8324C7.27901 14.7519 6.7893 14.64 6.33457 14.4196C5.97778 14.2447 5.9393 14.1573 6.04074 13.7795C6.1177 13.4997 6.19465 13.2198 6.2821 12.9435C6.34506 12.7406 6.40453 12.6497 6.51296 12.6497C6.57593 12.6497 6.65638 12.6811 6.76482 12.7371C7.26852 12.9995 7.8037 13.1464 8.36687 13.2163C8.46132 13.2268 8.55576 13.2338 8.65021 13.2338C8.91255 13.2338 9.1679 13.1848 9.41625 13.0764C10.0424 12.8036 10.1403 12.0795 9.61214 11.6457C9.43375 11.4988 9.22737 11.3904 9.01399 11.296C8.46482 11.0546 7.89465 10.8727 7.37696 10.5614C6.53745 10.0577 6.00576 9.36859 6.06872 8.34719C6.13868 7.19287 6.7928 6.47229 7.85267 6.08752C8.28992 5.93011 8.29342 5.93361 8.29342 5.47887C8.29342 5.32497 8.28992 5.17106 8.29691 5.01365C8.30741 4.67085 8.36338 4.61138 8.70617 4.60089C8.74465 4.60089 8.78663 4.60089 8.8251 4.60089C8.89156 4.60089 8.95802 4.60089 9.02449 4.60089C9.05247 4.60089 9.08045 4.60089 9.10494 4.60089C9.75556 4.60089 9.75556 4.62887 9.75905 5.33196C9.76255 5.84966 9.76255 5.84966 10.2767 5.93011C10.672 5.99307 11.0463 6.1085 11.4101 6.26941C11.6095 6.35686 11.6864 6.49678 11.6235 6.71015C11.5325 7.02496 11.4451 7.34328 11.3471 7.65459C11.2842 7.84348 11.2247 7.93093 11.1128 7.93093C11.0498 7.93093 10.9728 7.90645 10.8749 7.85748C10.3712 7.61262 9.843 7.49369 9.29033 7.49369C9.22037 7.49369 9.14691 7.49719 9.07695 7.50069C8.91255 7.51118 8.75165 7.53217 8.59774 7.59863C8.05206 7.83649 7.96461 8.43813 8.42984 8.80892C8.6642 8.9978 8.93354 9.13073 9.20988 9.24616C9.69259 9.44554 10.1753 9.63793 10.6335 9.88978C12.0747 10.6943 12.4665 12.5237 11.4416 13.769Z" fill="url(#paint0_linear_168_5659)"/>
</g>
<defs>
<linearGradient id="paint0_linear_168_5659" x1="16.3822" y1="10.4174" x2="1.8867" y2="10.4174" gradientUnits="userSpaceOnUse">
<stop stop-color="#7A6EEE"/>
<stop offset="1" stop-color="#A728DA"/>
</linearGradient>
<clipPath id="clip0_168_5659">
<rect width="18" height="18" fill="white" transform="translate(0 0.917969)"/>
</clipPath>
</defs>
</svg>

<svg width="18" height="19" viewBox="0 0 18 19" fill="none" xmlns="http://www.w3.org/2000/svg"><g clip-path="url(#clip0_168_5659)"><path d="M9 1.918a8.5 8.5 0 100 17 8.5 8.5 0 000-17zm2.442 11.851a2.74 2.74 0 01-1.417.91c-.245.066-.357.195-.343.45.01.253 0 .5-.003.753 0 .224-.116.343-.336.35-.144.003-.287.006-.43.006-.126 0-.252 0-.378-.003-.238-.003-.35-.14-.35-.37-.004-.183-.004-.368-.004-.55-.003-.406-.017-.42-.405-.483-.497-.08-.987-.192-1.441-.412-.357-.175-.396-.263-.294-.64.077-.28.154-.56.241-.836.063-.203.123-.294.231-.294.063 0 .143.031.252.087a4.68 4.68 0 001.602.48c.094.01.189.017.283.017.263 0 .518-.05.766-.158.626-.272.724-.997.196-1.43a2.553 2.553 0 00-.598-.35c-.55-.241-1.12-.423-1.637-.735-.84-.503-1.371-1.192-1.308-2.214.07-1.154.724-1.875 1.784-2.26.437-.157.44-.153.44-.608 0-.154-.003-.308.004-.465.01-.343.066-.403.41-.413h.398c.65 0 .65.028.654.731.004.518.004.518.518.598.395.063.77.179 1.133.34.2.087.276.227.213.44-.09.315-.178.633-.276.945-.063.188-.122.276-.234.276a.562.562 0 01-.238-.074 3.577 3.577 0 00-1.798-.356c-.164.01-.325.031-.48.098-.545.237-.632.84-.167 1.21.234.189.504.322.78.437.483.2.965.392 1.423.644 1.442.804 1.834 2.634.809 3.879z" fill="url(#paint0_linear_168_5659)"/></g><defs><linearGradient id="paint0_linear_168_5659" x1="16.382" y1="10.417" x2="1.887" y2="10.417" gradientUnits="userSpaceOnUse"><stop stop-color="#7A6EEE"/><stop offset="1" stop-color="#A728DA"/></linearGradient><clipPath id="clip0_168_5659"><path fill="#fff" transform="translate(0 .918)" d="M0 0h18v18H0z"/></clipPath></defs></svg>
